svgs/duotone/arrow-up-a-z.svg

<svg xmlns="http://www.w3.org/2000/svg" viewBox="0 0 512 512"><!-- Font Awesome Pro 6.0.0-alpha2 by @fontawesome - https://fontawesome.com License - https://fontawesome.com/license (Commercial License) --><defs><style>.fa-secondary{opacity:.4}</style></defs><path d="M448 416H397.25L470.625 342.625C479.782 333.469 482.516 319.719 477.563 307.75S460.938 288 448 288H320C302.329 288 288 302.312 288 320S302.329 352 320 352H370.75L297.375 425.375C288.219 434.531 285.485 448.281 290.438 460.25S307.063 480 320 480H448C465.672 480 480 465.688 480 448S465.672 416 448 416ZM492.614 209.312L412.621 48.359C401.78 26.547 366.221 26.547 355.379 48.359L275.387 209.312C267.481 225.219 273.887 244.551 289.698 252.504C305.571 260.426 324.741 253.98 332.631 238.105L339.786 223.711H428.215L435.37 238.105C441.543 250.531 459.344 261.977 478.303 252.504C494.114 244.551 500.52 225.219 492.614 209.312ZM367.784 167.375L384 134.746L400.217 167.375H367.784Z" class="fa-secondary"/><path d="M239.591 138.039C251.527 151.086 250.652 171.352 237.623 183.305C224.074 195.727 203.861 193.824 192.404 181.332L160 145.938V447.969C160 465.672 145.671 480 128 480S96 465.672 96 447.969V145.938L63.595 181.332C51.642 194.344 31.392 195.25 18.377 183.305C5.347 171.352 4.472 151.086 16.408 138.039L104.406 41.945C116.531 28.684 139.468 28.684 151.593 41.945L239.591 138.039Z" class="fa-primary"/></svg>

<svg xmlns="http://www.w3.org/2000/svg" viewBox="0 0 512 512"><!--! Font Awesome Pro 6.3.0 by @fontawesome - https://fontawesome.com License - https://fontawesome.com/license (Commercial License) Copyright 2023 Fonticons, Inc. --><defs><style>.fa-secondary{opacity:.4}</style></defs><path class="fa-primary" d="M239.6 138c11.94 13.05 11.06 33.31-1.969 45.27C224.1 195.7 203.9 193.8 192.4 181.3L160 145.9v302C160 465.7 145.7 480 128 480S96 465.7 96 447.1V145.9L63.6 181.3C51.64 194.3 31.39 195.3 18.38 183.3C5.348 171.4 4.473 151.1 16.41 138l87.1-96.09c12.12-13.26 35.06-13.26 47.19 0L239.6 138z"/><path class="fa-secondary" d="M448 416h-50.75l73.38-73.38c9.156-9.156 11.89-22.91 6.938-34.88s-16.63-19.86-29.56-19.86H319.1C302.3 287.9 288 302.3 288 320s14.33 32 32 32h50.75l-73.38 73.38c-9.156 9.156-11.89 22.91-6.938 34.88S307.1 480 319.1 480h127.1C465.7 480 480 465.7 480 448S465.7 416 448 416zM492.6 209.3l-79.99-160.1c-10.84-21.81-46.4-21.81-57.24 0L275.4 209.3c-7.906 15.91-1.5 35.24 14.31 43.19c15.87 7.922 35.04 1.477 42.93-14.4l7.154-14.39h88.43l7.154 14.39c6.174 12.43 23.97 23.87 42.93 14.4C494.1 244.6 500.5 225.2 492.6 209.3zM367.8 167.4L384 134.7l16.22 32.63H367.8z"/></svg>
